X:119
T: TRAURIGES MAEDCHEN VERZAGE NUR NICHT
N: E0711
O: Europa, Mitteleuropa, Deutschland, Hessen, Wetterau, Gambach
R: Liebes - Lied, Leid, Klage
M: 3/8
L: 1/16
K: A
E2 | E2E2G2 | B2B2
E2 | E2A2B2 | c4
E2 | E2G2B2 | f2e3
c | d2d2B2 | A4
E2 | E2G2B2 | f2e3
c | d2d2B2 | A4

@@@ Tune index: 4432
